www/assets/icons/send_time_extension.svg

<svg xmlns="http://www.w3.org/2000/svg" width="24" height="24" viewBox="0 0 24 24" fill='currentColor'><path d="M19 6.25c0-1.1-.9-2-2-2h-4a2.5 2.5 0 0 0-5 0H4.01c-1.1 0-2 .9-2 2v3.8c2.69 0 2.99 2.16 2.99 2.7s-.29 2.7-3 2.7v3.8c0 1.1.9 2 2 2h3.8c0-2.16 1.37-2.78 2.2-2.94v-9.3l9 4.5z"/><path d="M12 12.25v4l4 1-4 1v4l10-5z"/></svg>

<svg width="24" height="24" viewBox="0 0 24 24" xmlns="http://www.w3.org/2000/svg" fill='currentColor'><path d="M19 6.25C19 5.15 18.1 4.25 17 4.25H13C13 2.87 11.88 1.75 10.5 1.75C9.12 1.75 8 2.87 8 4.25H4.01C2.91 4.25 2.01 5.15 2.01 6.25V10.05C4.7 10.05 5 12.21 5 12.75C5 13.29 4.71 15.45 2 15.45V19.25C2 20.35 2.9 21.25 4 21.25H7.8C7.8 19.09 9.17 18.47 10 18.31V9.01L19 13.51V6.25Z"/><path d="M12 12.25V16.25L16 17.25L12 18.25V22.25L22 17.25L12 12.25Z"/></svg>
